uploads/global/arrow-right-dark.svg

<svg height="15" viewBox="0 0 22 15" width="22" xmlns="http://www.w3.org/2000/svg"><path d="m.4545477 6.0663114h17.9937237l-5.5877544-5.3313341c-.172261-.1701703-.1697974-.4406644.005537-.6079527.1753344-.1672884.4588384-.1696389.6371934-.005283l6.3636672 6.0716406c.1774472.1693553.1774472.4438803 0 .6132356l-6.3636672 6.0716406c-.178355.1643559-.461859.1620054-.6371934-.005283-.1753344-.1672883-.177798-.4377824-.005537-.6079527l5.5877544-5.3313341h-17.9937237c-.2510398 0-.4545477-.194169-.4545477-.4336886s.2035079-.4336886.4545477-.4336886z" fill="none" stroke="#364145" stroke-width="1.333333" transform="translate(1 1)"/></svg>

<?xml version="1.0" encoding="UTF-8"?>
<svg width="22px" height="15px" viewBox="0 0 22 15" version="1.1" xmlns="http://www.w3.org/2000/svg" xmlns:xlink="http://www.w3.org/1999/xlink">
    <!-- Generator: Sketch 52.5 (67469) - http://www.bohemiancoding.com/sketch -->
    <title>Path</title>
    <desc>Created with Sketch.</desc>
    <g id="Page-1" stroke="none" stroke-width="1" fill="none" fill-rule="evenodd">
        <g id="logo-for-web-copy" transform="translate(-363.000000, -31.000000)" stroke="#364145" stroke-width="1.33333333">
            <g id="arrow-right" transform="translate(364.000000, 32.000000)">
                <path d="M0.4545477,6.0663114 L18.4482714,6.0663114 L12.860517,0.7349773 C12.688256,0.564807 12.6907196,0.2943129 12.866054,0.1270246 C13.0413884,-0.0402638 13.3248924,-0.0426143 13.5032474,0.1217416 L19.8669146,6.1933822 C20.0443618,6.3627375 20.0443618,6.6372625 19.8669146,6.8066178 L13.5032474,12.8782584 C13.3248924,13.0426143 13.0413884,13.0402638 12.866054,12.8729754 C12.6907196,12.7056871 12.688256,12.435193 12.860517,12.2650227 L18.4482714,6.9336886 L0.4545477,6.9336886 C0.2035079,6.9336886 0,6.7395196 0,6.5 C0,6.2604804 0.2035079,6.0663114 0.4545477,6.0663114 Z" id="Path"></path>
            </g>
        </g>
    </g>
</svg>
